X:52
T:Denny Mescall's
R:slide
Z:id:hn-slide-52
M:6/8
K:G
B2B BAB|d2B G3|GBd g2e|d2B G2A|B2B BAB|d2B G2A|Bcd cBA|1 G3 G2A:|2 G3 GBd||
|:g2g gfe|d2B c2d|efg a2b|a2g e2f|g2g gfe|d2B c2d|e2d e2f|g3 g2d:|
<end>
<start>
